public/images/twitter-icon.svg

<svg width="24" height="24" viewBox="0 0 24 24" fill="none" xmlns="http://www.w3.org/2000/svg">
<g id="Group 123">
<path id="Vector" d="M17.7895 5.4734C17.0836 4.88341 16.1822 4.51708 15.1972 4.50055L15.1967 4.50054C12.9879 4.46464 11.2302 6.18598 11.0339 8.34088C9.17256 7.94055 7.53351 6.86105 6.36603 5.34169C6.16116 5.07508 5.83602 4.92927 5.50067 4.95362C5.16531 4.97797 4.86465 5.16923 4.70044 5.46264C4.34537 6.09713 4.14468 6.83363 4.14468 7.61523C4.14468 8.18201 4.25013 8.7267 4.4429 9.2275C4.23884 9.41462 4.11877 9.68098 4.11877 9.96455V10.0069C4.11877 11.16 4.55724 12.2236 5.28186 13.0099C5.21636 13.2045 5.21121 13.4178 5.27304 13.6206C5.54225 14.5037 6.08331 15.2754 6.80161 15.8184C6.31196 15.972 5.79378 16.0536 5.25799 16.0522H5.2555C5.04391 16.0522 4.83243 16.0383 4.62248 16.0124C4.16347 15.9557 3.72549 16.2212 3.56341 16.6544C3.40134 17.0876 3.55745 17.5754 3.94091 17.8339C5.49835 18.8842 7.3546 19.5 9.35207 19.5L17.7895 5.4734ZM17.7895 5.4734C18.2127 5.35008 18.6145 5.17386 18.9879 4.95121C19.3439 4.73897 19.7939 4.76831 20.1193 5.02498C20.4447 5.28165 20.5781 5.71245 20.4546 6.10808C20.2263 6.83939 19.8092 7.48366 19.2594 7.98102M17.7895 5.4734L19.2594 7.98102M5.25425 18.0522C5.25384 18.0522 5.25342 18.0522 5.25301 18.0522L5.25448 17.4614L5.25425 18.0522ZM5.25425 18.0522C5.25467 18.0522 5.25509 18.0522 5.2555 18.0522V17.462L5.25425 18.0522ZM19.2594 7.98102C19.3436 8.4159 19.3553 8.82844 19.3553 9.20031C19.3553 13.9187 15.8677 19.5014 9.35231 19.5L19.2594 7.98102Z" stroke="white" stroke-width="2" stroke-linejoin="round"/>
</g>
</svg>

<svg xmlns="http://www.w3.org/2000/svg" width="24" height="24" fill="none"><path stroke="#fff" stroke-linejoin="round" stroke-width="2" d="M17.79 5.473a4.143 4.143 0 0 0-2.593-.972c-2.21-.036-3.967 1.685-4.163 3.84-1.861-.4-3.5-1.48-4.668-3a1 1 0 0 0-1.666.122 4.483 4.483 0 0 0-.258 3.765 1 1 0 0 0-.323.737v.042c0 1.153.438 2.217 1.163 3.003a1 1 0 0 0-.009.61 4.35 4.35 0 0 0 1.529 2.198 5.102 5.102 0 0 1-1.544.234h-.003a5.16 5.16 0 0 1-.633-.04 1 1 0 0 0-.681 1.822A9.64 9.64 0 0 0 9.352 19.5L17.79 5.473Zm0 0c.423-.123.825-.3 1.198-.522a1 1 0 0 1 1.467 1.157 4.22 4.22 0 0 1-1.196 1.873m-1.47-2.508 1.47 2.508M5.254 18.052h-.001l.001-.59v.59Zm0 0h.002v-.59l-.002.59ZM19.26 7.981c.085.435.096.847.096 1.22 0 4.718-3.487 10.3-10.003 10.299L19.26 7.981Z"/></svg>
